X:18391
T:Walsh's, Connie
M:6/8
L:1/8
K:D Major
A3|Bcd Bcd|c2B A2A|Bcd e2f|g3 f2g|!
agf gfe|f2d A2A|Bcd e2c|d3:|!
f2g|agf gfe|f2d A2A|Bcd e2f|g3 f2g|!
agf gfe|f2d A2A|Bcd e2c|d3:|!


